X:1
T:Moonlight In Vermont
C:John Blackburn & Karl Suessdo
L:1/4
M:C
I:linebreak $
K:Eb
"Eb6" c B"Cm" G F |"Fm" G2"E7" z2 |"Eb6" c B"Cm" G E |"Db7" F/G/ =B, z2 |$"Fm" G F"Bb4" E COx///||
"Eb6" E4 :|[K:G]"Am" D D/D/"Ao" D/ D D/ |"Bm" D/D/ D"Bb7" D/ D D/ |$"Am" (3D D D"Ab7" (3d c d |
"G" B4 ||[K:Ab]"Bbm" E E/E/"Bbo" E/ E E/ |"Cm" E/E/ E"B7" E/ E E/ |$"Bbm" (3E E E"A7" (3e d e |
"Ab" c2"E7""_D.C. al Coda" =B2Ox///||[K:Eb]"Eb6" E2"Cm" z =B, |"Aø" C2 E G |$"Fm" c d"E7" =B ^c |
"Eb" B4 | z4 |]

